!!!COM: Mozart, Wolfgang Amadeus
!!!CDT: 1756/01/27/-1791/12/05/
!!!CNT: German
!!!OTL: Piano Sonata No. 6 in D major
!!!SCT1: K<sup>1</sup> 284
!!!SCT2: K<sup>6</sup> 205b
!!!OMV: Mvmt. 3i
!!!OMD: Variation 8: Maggiore
!!!ODT: 1775///
**kern	**kern	**dynam
*staff2	*staff1	*staff1
*>[A,A,B,B]	*>[A,A,B,B]	*>[A,A,B,B]
*>norep[A,B]	*>norep[A,B]	*>norep[A,B]
*>A	*>A	*>A
*clefF4	*clefG2	*clefG2
*k[f#c#]	*k[f#c#]	*k[f#c#]
*D:	*D:	*D:
*M2/2	*M2/2	*M2/2
*met(c|)	*met(c|)	*met(c|)
=|!:	=|!:	=!|:
2r	4a\ 4aa\	p
.	8a\ 8aa\L	.
.	8a\ 8aa\J	.
*clefG2	*	*
=1	=1	=1
8r	4dd\ 4ddd\	.
(8d/ 8f#/L	.	.
8e/ 8g/	4r	.
8f#/) 8a/J	.	.
2r	4dd\ 4ddd\	.
.	8dd\ 8ddd\L	.
.	8dd\ 8ddd\J	.
=2	=2	=2
8r	4g\ 4gg\	.
(8A/ 8c#/L	.	.
8B/ 8d/	4r	.
8c#/) 8e/J	.	.
2r	4g\ 4gg\	.
.	8g\ 8gg\L	.
.	8g\ 8gg\J	.
*clefF4	*	*
=3	=3	=3
4D\ 4d\	8f#\ 8ff#\L	.
.	8g\ 8gg\	.
4r	8g#\ 8gg#\	.
.	8a\ 8aa\J	.
4GG/ 4G/	8a#\ 8aa#\L	.
.	8b\ 8bb\	.
4r	8cc#\ 8ccc#\	.
.	8dd\ 8ddd\J	.
=4	=4	=4
4AA\ 4A\	4dd\ (4ff#\	.
4r	4cc#\ 4ee\)	f
4AA\ 4A\	2r	.
8AA\ 8A\L	.	.
8AA\ 8A\J	.	.
=5	=5	=5
4D\ 4d\	8r	.
.	8dd\ (8ff#\L	.
4r	8ee\ 8gg\	.
.	8ff#\ 8aa\J)	.
4D\ 4d\	2r	.
8D\ 8d\L	.	.
8D\ 8d\J	.	.
=6	=6	=6
4EE/ 4E/	8r	.
.	8gg#\ (8bb\L	.
4r	8aa\ 8ccc#\	.
.	8bb\ 8ddd\J)	.
8r	4e/ 4ee/	.
8G#\ (8B\L	.	.
8A\ 8c#\	8e/ 8ee/L	.
8B\ 8d\J)	8e/ 8ee/J	.
=7	=7	=7
8r	8ee\ 8eee\	.
8A\ 8c#\	8r	.
8r	8dd\ 8ddd\	.
8D\ 8B\	8r	.
8r	8cc#\ 8ccc#\	.
8E\ 8A\	8r	.
8r	8b\ 8bb\	.
8E\ 8G#\	8r	.
=8	=8	=8
8r	4a\ 4aa\	.
8A\	.	.
4AA/	4r	.
=:|!|:	=:|!|:	=:|!|:
*>B	*>B	*>B
2r	4a\ 4aa\	p
.	8a\ 8aa\L	.
.	8a\ 8aa\J	.
*clefG2	*	*
=9	=9	=9
8r	8ccn\ 8cccn\	.
8d#/ 8a/	8r	.
8r	8b\ 8bb\	.
8e/ 8g#/	8r	.
8r	8b-\ 8bb-\	.
8c#/ 8gn/	8r	.
8r	8a\ 8aa\	.
8dn/ 8f#/	8r	.
=10	=10	=10
4r	8cc#\ (8ccc#\L	f
.	8dd\ 8ddd\J)	.
*clefF4	*	*
8AA#\ (8A#\L	4r	.
8BB\ 8B\J)	.	.
4r	8a#\ (8aa#\L	.
.	8b\ 8bb\J)	.
(8FF#/ 8F#/L	4r	.
8GG/) 8G/J	.	.
=11	=11	=11
4C#\ (4c#\	4g\ (4gg\	p
4D\ 4d\	4f#\ 4ff#\	.
4C#\ 4c#\	4e/ 4ee/	.
4BB\ 4B\)	4d/ 4dd/)	.
=12	=12	=12
[1A (1d	4.f#\ (4.ff#\	.
.	8g\ 8gg\)	.
.	8g#\ (8gg#\L	.
.	8a\ 8aa\	.
.	8g#\ 8gg#\	.
.	8a\ 8aa\J)	.
=13	=13	=13
4A\] 4c#\)	4e/ 4ee/	f
4r	4r	.
4AAA/ 4AA/	2r	.
8AAA/ 8AA/L	.	.
8AAA/ 8AA/J	.	.
=14	=14	=14
4DD/ 4D/	8r	.
.	8dd\ (8ff#\L	.
4r	8ee\ 8ggn\	.
.	8ff#\ 8aa\J)	.
4D\ 4d\	2r	.
8D\ 8d\L	.	.
8D\ 8d\J	.	.
=15	=15	=15
4GG/ 4G/	8r	.
.	8b\ (8ee\L	.
4r	8dd#\ 8ff#\	.
.	8ee\ 8gg\J)	.
*clefG2	*	*
8r	4cc#\ 4ccc#\	.
(8g/ 8b/L	.	.
8f#/ 8a/	8cc#\ 8ccc#\L	.
8e/) 8g/J	8cc#\ 8ccc#\J	.
=16	=16	=16
8r	8ddn\ 8dddn\	.
8d/ 8f#/	8r	.
8r	8b\ 8bb\	.
*clefF4	*	*
8G\ 8e\	8r	.
8r	8a\ 8aa\	.
8A\ 8f#\	8r	.
8r	8cc#\ 8ccc#\	.
8A\ 8e\	8r	.
=17	=17	=17
8r	4dd\ 4ddd\	.
8d\	.	.
4D\	4r	.
==:|!	==:|!	==:|!
*-	*-	*-
!!!SMS: Alte Mozart-Ausgabe, Band 20, Breitkopf &amp; H&auml;rtel 1877-1883.
!!!ONB: Stich und Druck von Breitkopf &amp; H&auml;rtel in Leipzig
!!!ONB: Ausgegeben 1878
!!!ENC: Craig Stuart Sapp
!!!END: 2009/09/22/
!!!title: @{OTL}, K 284 (205b), @{OMV}
!!!hum2abc: --no-tempo 
